X:9
T:Miss Flora McDonalds Reel. LIT.009
M:2/4
Q:1/4=140
L:1/8
B:Wm. Litten MS, 1802
Z:Village Music Project 2017 Anne Wride
K:D
F | E2 EF | BE EF | E2 EF | dD DF |
E2 EF | EF GA | Bc/d/ AG | "_c in book"dE E :|
|: F | Ee ed/c/ | eE EF | Ee ed/c/ | dD DF |
Ee ed/c/ | Bc de | fe dB | dD D :|

